heat-wave.svg

<svg fill="currentColor" viewBox="0 0 24 24"><path d="m8.5 4.5-3.1 5 3.1 5.2-3.3 5.8-1.8-.9 2.7-4.9L3 9.5l3.7-5.9zm6.2-.1-3.1 5.1 3.1 5-3.3 5.8-1.8-.9 2.7-4.9-3.1-5 3.7-6zm6.3 0-3.1 5.1 3.1 5-3.3 5.8-1.8-.9 2.7-4.9-3.1-5 3.7-6z"/></svg>

<svg  viewBox="0 0 24 24" fill="currentColor"><path  d="M8.5 4.5L5.4 9.5L8.5 14.7L5.2 20.5L3.4 19.6L6.1 14.7L3 9.5L6.7 3.6L8.5 4.5M14.7 4.4L11.6 9.5L14.7 14.5L11.4 20.3L9.6 19.4L12.3 14.5L9.2 9.5L12.9 3.5L14.7 4.4M21 4.4L17.9 9.5L21 14.5L17.7 20.3L15.9 19.4L18.6 14.5L15.5 9.5L19.2 3.5L21 4.4"/></svg>
